; HEADER_BLOCK_START
; generated by OrcaSlicer 1.9.1 on 2024-11-05 at 18:08:55
; total layer number: 72
; filament_density: 1.24
; filament_diameter: 1.75
; max_z_height: 18.00
; HEADER_BLOCK_END

; THUMBNAIL_BLOCK_START

;
; THUMBNAIL_BLOCK_END

; external perimeters extrusion width = 0.40mm
; perimeters extrusion width = 0.40mm
; infill extrusion width = 0.40mm
; solid infill extrusion width = 0.40mm
; top infill extrusion width = 0.40mm
; first layer extrusion width = 0.40mm

; EXECUTABLE_BLOCK_START
M73 P0 R27
M201 X1000 Y1000 Z200 E5000
M203 X200 Y200 Z10 E60
M204 P1250 R1250 T1250
M205 X8.00 Y8.00 Z0.40 E5.00 ; sets the jerk limits, mm/sec
;TYPE:Custom
G21 ;metric values
G90 ;absolute positioning
M82 ;set extruder to absolute mode
M107 ;start with the fan off
G28 X0 Y0 ;move X/Y to min endstops
M300 S1318 P266
G28 Z0 ;move Z to min endstops
G0 Z0.2
 
M355 S1 ;oomlout light on
M140 S60 ;Start heating bed 
M104 S170 ; set extruder temp
M190 S60 ;Wait for bed to reach temp before proceeding
M109 S170 ; wait for extruder temp

G0 Z20 F200;oomlout lift
;temperature stuff before bed leveling


;G29 ;oomlout bed level commented for planning
 

;purge print head from bambu
M109 S215 ;set nozzle to common flush temp
G92 E0 ;zero the extruded length
G1 E50 F300

M355 S1 ;oomlout light on
M104 S215 ;Start heating extruder
M109 S215 ;Wait for extruder to reach temp before proceeding



g1 Z3 F200; move z up a bit (height from prusa)
G92 E0 ;zero the extruded length
G0 E50 F300 ;clean out a bit more from bambu



M355 S1 ;oomlout light on
;from prusa
; intro line
G92 E0 ;zero the extruded length
;G1 X170 F4000
;G1 Y10 F1000;move bed forward and down ready for wipe
;G1 Z0.2 F720
;G1 X110 E8 F900
;G1 X40 E10 F700
;G1 X20 F4000 ; Quickly wipe away from the filament line
G92 E0


M355 S1 ;oomlout light on
M117 ; Printing…
G5
G90
G21
M83 ; use relative distances for extrusion
; filament start gcode
M106 S0
;LAYER_CHANGE
;Z:0.25
;HEIGHT:0.25
;BEFORE_LAYER_CHANGE
;0.25
G92 E0
G1 E-.8 F1800
;AFTER_LAYER_CHANGE
;0.25
;_SET_FAN_SPEED_CHANGING_LAYER
M204 S1000
; printing object tray_4_width_2.5_height_18_mm_depth_quantity_4.stl id:0 copy 0
G1 X149.021 Y214.388 F7200
G1 Z.25 F1800
G1 E.8 F2400
;TYPE:Inner wall
;WIDTH:0.399999
M73 P0 R26
G1 F1800
M73 P1 R26
G1 X148.587 Y214.652 E.01792
G1 X147.893 Y214.893 E.02591
G1 X147.17 Y215.015 E.0259
M73 P2 R26
G1 X97.078 Y215.015 E1.76715
G1 X96.435 Y214.985 E.02271
G1 X95.717 Y214.832 E.02589
G1 X95.046 Y214.533 E.02592
G1 X94.435 Y214.127 E.02589
G1 X93.921 Y213.602 E.02591
G1 X93.502 Y212.999 E.0259
G1 X93.217 Y212.321 E.02596
G1 X93.051 Y211.611 E.02572
G1 X93.017 Y211.083 E.01867
G1 X93.025 Y183.525 E.97222
G1 X93.096 Y182.887 E.02263
G1 X93.293 Y182.18 E.0259
G1 X93.633 Y181.53 E.0259
G1 X94.078 Y180.945 E.02591
G1 X94.634 Y180.465 E.02592
G1 X95.262 Y180.085 E.0259
G1 X95.955 Y179.843 E.02591
G1 X96.679 Y179.721 E.0259
G1 X146.773 Y179.721 E1.76726
G1 X147.415 Y179.752 E.02268
G1 X148.131 Y179.904 E.02582
G1 X148.802 Y180.203 E.02592
G1 X149.413 Y180.609 E.02589
G1 X149.927 Y181.134 E.02591
G1 X150.346 Y181.737 E.02591
G1 X150.631 Y182.414 E.02592
G1 X150.799 Y183.129 E.02589
G1 X150.832 Y183.78 E.023
G1 X150.824 Y211.211 E.96774
G1 X150.753 Y211.849 E.02263
G1 X150.555 Y212.556 E.0259
G1 X150.215 Y213.206 E.0259
G1 X149.771 Y213.791 E.02591
G1 X149.215 Y214.271 E.02592
G1 X149.056 Y214.368 E.00657
G1 X149.203 Y214.708
G1 X148.735 Y214.966 E.01884
G1 X148.238 Y215.162 E.01884
G1 X147.721 Y215.295 E.01884
G1 X147.191 Y215.362 E.01884
G1 X96.657 Y215.362 E1.78278
G1 X96.127 Y215.295 E.01884
G1 X95.61 Y215.162 E.01884
G1 X95.114 Y214.965 E.01884
G1 X94.646 Y214.708 E.01884
G1 X94.214 Y214.394 E.01884
G1 X93.825 Y214.029 E.01884
G1 X93.484 Y213.617 E.01884
G1 X93.198 Y213.167 E.01884
G1 X92.971 Y212.683 E.01884
G1 X92.806 Y212.175 E.01884
G1 X92.706 Y211.655 E.01869
G1 X92.671 Y211.094 E.01982
G1 X92.671 Y183.641 E.9685
G1 X92.706 Y183.085 E.01967
G1 X92.806 Y182.561 E.01884
G1 X92.971 Y182.053 E.01884
G1 X93.198 Y181.569 E.01884
G1 X93.484 Y181.119 E.01883
G1 X93.825 Y180.707 E.01884
G1 X94.214 Y180.342 E.01884
G1 X94.646 Y180.028 E.01884
G1 X95.114 Y179.771 E.01884
G1 X95.61 Y179.574 E.01884
G1 X96.127 Y179.441 E.01884
G1 X96.657 Y179.374 E.01884
G1 X147.196 Y179.375 E1.78293
G1 X147.721 Y179.441 E.01868
G1 X148.238 Y179.574 E.01884
G1 X148.735 Y179.771 E.01884
G1 X149.203 Y180.028 E.01884
G1 X149.635 Y180.342 E.01884
G1 X150.024 Y180.707 E.01884
G1 X150.364 Y181.119 E.01884
G1 X150.65 Y181.57 E.01884
G1 X150.878 Y182.053 E.01884
G1 X151.043 Y182.561 E.01884
G1 X151.143 Y183.085 E.01884
G1 X151.178 Y183.78 E.02454
G1 X151.178 Y211.095 E.96363
G1 X151.143 Y211.651 E.01967
G1 X151.043 Y212.175 E.01884
G1 X150.878 Y212.683 E.01884
G1 X150.65 Y213.167 E.01884
G1 X150.364 Y213.617 E.01883
G1 X150.024 Y214.029 E.01884
G1 X149.635 Y214.394 E.01884
G1 X149.235 Y214.685 E.01743
G1 X149.389 Y215.001
;TYPE:Outer wall
G1 X148.882 Y215.279 E.02038
G1 X148.346 Y215.492 E.02038
G1 X147.786 Y215.636 E.02038
G1 X147.213 Y215.708 E.02037
G1 X96.635 Y215.708 E1.78432
G1 X96.062 Y215.636 E.02037
G1 X95.503 Y215.492 E.02038
G1 X94.966 Y215.279 E.02038
G1 X94.46 Y215.001 E.02038
G1 X93.993 Y214.662 E.02038
G1 X93.572 Y214.266 E.02038
G1 X93.203 Y213.821 E.02038
G1 X92.894 Y213.334 E.02037
G1 X92.648 Y212.811 E.02038
G1 X92.47 Y212.262 E.02038
G1 X92.362 Y211.699 E.02023
G1 X92.324 Y211.105 E.02097
G1 X92.324 Y183.631 E.96927
G1 X92.361 Y183.042 E.02082
G1 X92.47 Y182.474 E.02037
G1 X92.648 Y181.925 E.02038
G1 X92.894 Y181.402 E.02038
G1 X93.203 Y180.915 E.02037
G1 X93.572 Y180.47 E.02038
G1 X93.993 Y180.074 E.02038
G1 X94.46 Y179.735 E.02037
G1 X94.966 Y179.457 E.02038
G1 X95.503 Y179.244 E.02038
G1 X96.062 Y179.1 E.02038
G1 X96.635 Y179.028 E.02037
G1 X147.217 Y179.028 E1.78447
G1 X147.786 Y179.1 E.02022
G1 X148.346 Y179.244 E.02038
G1 X148.883 Y179.457 E.02038
M73 P3 R26
G1 X149.389 Y179.735 E.02038
G1 X149.856 Y180.074 E.02038
G1 X150.277 Y180.47 E.02038
G1 X150.645 Y180.915 E.02038
G1 X150.955 Y181.402 E.02037
G1 X151.201 Y181.925 E.02038
G1 X151.379 Y182.474 E.02038
G1 X151.487 Y183.042 E.02037
G1 X151.524 Y183.78 E.02608
G1 X151.524 Y211.105 E.96402
G1 X151.487 Y211.694 E.02082
G1 X151.379 Y212.262 E.02037
G1 X151.201 Y212.811 E.02038
G1 X150.955 Y213.334 E.02038
G1 X150.645 Y213.821 E.02037
G1 X150.277 Y214.266 E.02038
G1 X149.856 Y214.662 E.02038
G1 X149.421 Y214.978 E.01896
G1 E-.8
G1 X147.348 Y214.679
G1 E.8 F2400
;TYPE:Sparse infill
;WIDTH:0.4
G1 F1800
G1 X147.15 Y214.704 E.00706
G1 X145.965 Y214.704 E.04182
G1 X150.52 Y197.703 E.62092
G1 X150.52 Y196.575 E.0398
G1 X133.978 Y180.033 E.82532
G1 X133.741 Y180.033 E.00837
G1 X124.451 Y214.704 E1.2663
G1 X124.566 Y214.704 E.00406
G1 X93.34 Y183.478 E1.55789
G1 X93.329 Y185.309 E.06458
G1 X113.021 Y180.033 E.71922
G1 X114.385 Y180.033 E.04813
G1 X148.627 Y214.274 E1.70837
G1 X148.849 Y214.151 E.00897
G1 X149.214 Y213.886 E.01592
G1 X149.543 Y213.577 E.01592
G1 X149.856 Y213.191 E.01754
G1 X144.209 Y214.704 E.20624
G1 X144.158 Y214.704 E.0018
G1 X109.487 Y180.032 E1.72981
G1 X108.641 Y180.032 E.02984
G1 X99.351 Y214.704 E1.26631
G1 X100.075 Y214.704 E.02555
G1 X93.329 Y207.957 E.33659
G1 X93.329 Y206.823 E.04002
G1 X150.52 Y191.499 E2.08882
G1 X150.52 Y191.677 E.00628
G1 X138.876 Y180.033 E.58094
G1 E-.8
G1 X135.941 Y180.033
G1 E.8 F2400
G1 F1800
G1 X137.326 Y180.033 E.04888
G1 X128.036 Y214.704 E1.2663
G1 X126.651 Y214.704 E.04888
G1 E-.8
G1 X131.622 Y214.704
G1 E.8 F2400
G1 F1800
M73 P4 R26
G1 X140.912 Y180.033 E1.2663
G1 X139.783 Y180.033 E.03981
G1 X93.329 Y192.48 E1.69669
G1 X93.329 Y193.263 E.02761
G1 X114.769 Y214.704 E1.06972
G1 X113.694 Y214.704 E.03795
G1 X122.984 Y180.033 E1.26631
G1 X124.181 Y180.033 E.04226
G1 X150.52 Y206.371 E1.31408
G1 X150.52 Y205.841 E.01869
G1 X117.445 Y214.704 E1.208
G1 X117.279 Y214.704 E.00586
G1 X126.569 Y180.033 E1.2663
M73 P4 R25
G1 X126.402 Y180.033 E.0059
G1 X93.329 Y188.895 E1.20795
G1 X93.329 Y188.365 E.01869
G1 X119.667 Y214.704 E1.31409
G1 X120.865 Y214.704 E.04224
G1 X130.155 Y180.033 E1.2663
G1 X129.08 Y180.033 E.03794
G1 X150.52 Y201.473 E1.0697
G1 X150.52 Y202.256 E.02761
G1 X104.063 Y214.704 E1.69675
G1 X102.936 Y214.704 E.03975
G1 X112.227 Y180.033 E1.26631
G1 E-.8
G1 X117.198 Y180.033
G1 E.8 F2400
G1 F1800
M73 P5 R25
G1 X115.812 Y180.033 E.04888
G1 X106.522 Y214.704 E1.26631
G1 X107.908 Y214.704 E.04888
G1 E-.8
G1 X104.973 Y214.704
G1 E.8 F2400
G1 F1800
G1 X93.329 Y203.059 E.58096
G1 X93.329 Y203.237 E.00628
G1 X150.52 Y187.913 E2.08882
G1 X150.52 Y186.779 E.04002
G1 X143.774 Y180.033 E.33656
G1 X144.498 Y180.033 E.02553
G1 X135.208 Y214.704 E1.2663
G1 X134.362 Y214.704 E.02984
G1 X99.69 Y180.032 E1.72982
G1 X99.639 Y180.032 E.0018
G1 X93.993 Y181.545 E.20623
G1 X94.305 Y181.159 E.01754
G1 X94.634 Y180.85 E.01592
G1 X94.999 Y180.585 E.01592
G1 X95.222 Y180.462 E.00897
G1 X129.464 Y214.704 E1.70838
G1 X130.827 Y214.704 E.0481
G1 X150.52 Y209.427 E.71924
G1 X150.508 Y211.258 E.06458
G1 X119.283 Y180.033 E1.55788
G1 X119.398 Y180.033 E.00405
G1 X110.108 Y214.704 E1.26631
G1 X109.871 Y214.704 E.00835
G1 X93.329 Y198.161 E.82534
G1 X93.329 Y197.033 E.0398
G1 X97.884 Y180.032 E.62092
G1 X96.699 Y180.032 E.04182
G1 X96.5 Y180.057 E.00706
G1 E-.8
G1 X102.855 Y180.032
G1 E.8 F2400
G1 F1800
M73 P6 R25
G1 X101.47 Y180.032 E.04888
G1 X93.329 Y210.415 E1.10967
G1 X150.52 Y195.084 E2.08887
G1 X150.52 Y193.699 E.04888
G1 E-.8
G1 X150.52 Y198.67
G1 E.8 F2400
G1 F1800
G1 X94.434 Y213.698 E2.04845
G1 X94.634 Y213.886 E.00969
G1 X94.999 Y214.151 E.01592
G1 X95.395 Y214.369 E.01592
G1 X95.811 Y214.534 E.01579
G1 X105.055 Y180.032 E1.2601
G1 X104.589 Y180.032 E.01646
G1 X139.26 Y214.704 E1.72982
G1 X138.793 Y214.704 E.01647
G1 X148.038 Y180.202 E1.26011
G1 X148.454 Y180.367 E.01579
G1 X148.849 Y180.585 E.01592
G1 X149.214 Y180.85 E.01591
G1 X149.415 Y181.038 E.00969
G1 X93.329 Y196.066 E2.04845
G1 E-.8
G1 X93.329 Y201.037
G1 E.8 F2400
G1 F1800
G1 X93.329 Y199.652 E.04888
G1 X150.52 Y184.321 E2.08887
G1 X142.379 Y214.704 E1.10967
G1 X140.993 Y214.704 E.04888
; stop printing object tray_4_width_2.5_height_18_mm_depth_quantity_4.stl id:0 copy 0
M106 S255
;LAYER_CHANGE
;Z:0.5
;HEIGHT:0.25
;BEFORE_LAYER_CHANGE
;0.5
G92 E0
;WIPE_START
G1 F1800
G1 X141.993 Y214.704 E-.8
;WIPE_END
;AFTER_LAYER_CHANGE
;0.5
;_SET_FAN_SPEED_CHANGING_LAYER
M104 S210 ; set nozzle temperature
M140 S65 ; set bed temperature
; printing object tray_4_width_2.5_height_18_mm_depth_quantity_4.stl id:0 copy 0
G1 X149.124 Y214.584 Z.5 F7200
G1 E.8 F2400
;TYPE:Inner wall
;WIDTH:0.399999
G1 X148.672 Y214.833 E.01819
G1 X148.193 Y215.023 E.01819
G1 X147.694 Y215.151 E.01819
G1 X147.182 Y215.215 E.01819
G1 X96.666 Y215.215 E1.78213
G1 X96.155 Y215.151 E.01819
G1 X95.656 Y215.023 E.01819
G1 X95.176 Y214.833 E.01819
G1 X94.724 Y214.584 E.01819
G1 X94.307 Y214.281 E.01819
G1 X93.932 Y213.928 E.01819
M73 P7 R25
G1 X93.603 Y213.531 E.01819
G1 X93.327 Y213.096 E.01818
G1 X93.107 Y212.629 E.01819
G1 X92.948 Y212.139 E.01819
G1 X92.851 Y211.633 E.01819
G1 X92.817 Y211.09 E.01918
G1 X92.817 Y183.646 E.96819
G1 X92.851 Y183.103 E.01918
G1 X92.948 Y182.597 E.01819
G1 X93.107 Y182.107 E.01819
G1 X93.327 Y181.64 E.01819
G1 X93.603 Y181.205 E.01819
G1 X93.932 Y180.808 E.01819
G1 X94.307 Y180.455 E.01819
G1 X94.724 Y180.152 E.01819
G1 X95.176 Y179.903 E.01819
G1 X95.656 Y179.713 E.01819
G1 X96.155 Y179.585 E.01819
G1 X96.666 Y179.521 E.01819
G1 X147.195 Y179.522 E1.78259
G1 X147.694 Y179.585 E.01773
G1 X148.193 Y179.713 E.01819
G1 X148.672 Y179.903 E.01819
G1 X149.124 Y180.152 E.01819
G1 X149.541 Y180.455 E.01819
G1 X149.917 Y180.808 E.01819
G1 X150.246 Y181.205 E.01819
G1 X150.522 Y181.64 E.01818
G1 X150.736 Y182.096 E.01777
G1 X150.901 Y182.598 E.01865
G1 X150.997 Y183.103 E.01815
G1 X151.032 Y183.78 E.02389
G1 X151.032 Y211.09 E.96347
G1 X150.997 Y211.633 E.01918
G1 X150.901 Y212.139 E.01819
G1 X150.742 Y212.629 E.01819
G1 X150.522 Y213.096 E.01819
G1 X150.246 Y213.531 E.01819
G1 X149.917 Y213.928 E.01819
G1 X149.541 Y214.281 E.01819
G1 X149.156 Y214.561 E.01678
G1 X149.31 Y214.877 F7200
G1 F2400
G1 X148.82 Y215.147 E.01973
G1 X148.3 Y215.353 E.01973
G1 X147.759 Y215.492 E.01973
G1 X147.204 Y215.562 E.01972
G1 X96.645 Y215.562 E1.78367
G1 X96.09 Y215.492 E.01973
G1 X95.548 Y215.353 E.01973
G1 X95.028 Y215.147 E.01973
G1 X94.538 Y214.877 E.01973
G1 X94.086 Y214.549 E.01973
G1 X93.679 Y214.166 E.01973
G1 X93.322 Y213.735 E.01973
G1 X93.022 Y213.263 E.01972
G1 X92.784 Y212.757 E.01973
G1 X92.612 Y212.225 E.01973
G1 X92.507 Y211.676 E.01972
G1 X92.471 Y211.101 E.02033
G1 X92.471 Y183.635 E.96896
G1 X92.507 Y183.06 E.02033
G1 X92.612 Y182.511 E.01972
G1 X92.784 Y181.979 E.01973
G1 X93.022 Y181.473 E.01973
G1 X93.322 Y181.001 E.01972
G1 X93.679 Y180.57 E.01973
G1 X94.086 Y180.187 E.01973
G1 X94.538 Y179.859 E.01973
G1 X95.028 Y179.589 E.01973
G1 X95.548 Y179.383 E.01973
G1 X96.09 Y179.244 E.01973
G1 X96.645 Y179.174 E.01972
G1 X147.217 Y179.176 E1.78413
G1 X147.759 Y179.244 E.01926
G1 X148.3 Y179.383 E.01973
G1 X148.82 Y179.589 E.01973
G1 X149.31 Y179.859 E.01973
G1 X149.762 Y180.187 E.01973
G1 X150.17 Y180.57 E.01973
G1 X150.527 Y181.001 E.01973
G1 X150.826 Y181.473 E.01972
G1 X151.059 Y181.968 E.01929
G1 X151.237 Y182.511 E.02019
G1 X151.342 Y183.06 E.0197
G1 X151.378 Y183.78 E.02543
G1 X151.378 Y211.101 E.96386
G1 X151.342 Y211.676 E.02033
G1 X151.237 Y212.225 E.01972
G1 X151.064 Y212.757 E.01973
G1 X150.826 Y213.263 E.01973
G1 X150.527 Y213.735 E.01972
G1 X150.17 Y214.166 E.01973
G1 X149.762 Y214.549 E.01973
G1 X149.342 Y214.854 E.01831
G1 X149.498 Y215.169 F7200
M204 S700
;TYPE:Outer wall
G1 F2400
G1 X149.496 Y215.17 E.00009
G1 X148.968 Y215.461 E.02126
G1 X148.407 Y215.683 E.02126
G1 X147.824 Y215.833 E.02126
G1 X147.226 Y215.908 E.02126
G1 X96.623 Y215.908 E1.78521
G1 X96.025 Y215.833 E.02126
G1 X95.441 Y215.683 E.02126
G1 X94.881 Y215.461 E.02126
G1 X94.353 Y215.17 E.02126
G1 X93.865 Y214.816 E.02126
G1 X93.426 Y214.404 E.02126
G1 X93.041 Y213.939 E.02127
G1 X92.718 Y213.43 E.02126
G1 X92.462 Y212.885 E.02127
G1 X92.275 Y212.312 E.02127
G1 X92.162 Y211.72 E.02126
G1 X92.124 Y211.112 E.02149
G1 X92.124 Y183.624 E.96972
G1 X92.162 Y183.016 E.02149
G1 X92.275 Y182.424 E.02126
G1 X92.462 Y181.851 E.02127
G1 X92.718 Y181.306 E.02127
G1 X93.041 Y180.797 E.02126
G1 X93.426 Y180.332 E.02127
G1 X93.865 Y179.92 E.02126
G1 X94.353 Y179.566 E.02126
G1 X94.881 Y179.275 E.02126
G1 X95.441 Y179.053 E.02126
G1 X96.025 Y178.903 E.02126
G1 X96.623 Y178.828 E.02126
G1 X147.239 Y178.83 E1.78567
G1 X147.824 Y178.903 E.0208
G1 X148.407 Y179.053 E.02126
G1 X148.968 Y179.275 E.02126
G1 X149.496 Y179.566 E.02126
G1 X149.984 Y179.92 E.02126
G1 X150.423 Y180.332 E.02126
G1 X150.807 Y180.797 E.02127
G1 X151.13 Y181.306 E.02126
G1 X151.381 Y181.84 E.02081
G1 X151.573 Y182.425 E.02172
G1 X151.686 Y183.016 E.02125
G1 X151.724 Y183.78 E.02696
G1 X151.724 Y211.112 E.96424
G1 X151.686 Y211.72 E.02149
G1 X151.573 Y212.312 E.02126
G1 X151.387 Y212.885 E.02127
G1 X151.13 Y213.43 E.02127
G1 X150.807 Y213.939 E.02126
G1 X150.423 Y214.404 E.02127
G1 X149.984 Y214.816 E.02126
G1 X149.53 Y215.145 E.01976
G1 X148.926 Y214.338 F7200
M204 S1000
;TYPE:Sparse infill
;WIDTH:0.4
G1 F2400
G1 X149.342 Y214.041 E.01805
G1 X149.689 Y213.715 E.01681
G1 X149.876 Y213.49 E.01031
G1 X150.72 Y210.339 E.11508
G1 X150.72 Y209.373 E.03405
G1 X130.081 Y214.904 E.75381
G1 X129.664 Y214.904 E.01471
G1 X95.075 Y180.315 E1.72571
G1 X94.892 Y180.415 E.00737
G1 X94.506 Y180.695 E.0168
G1 X94.159 Y181.021 E.0168
G1 X93.973 Y181.247 E.01031
G1 X93.129 Y184.397 E.11508
G1 X93.129 Y185.363 E.03405
G1 X113.766 Y179.833 E.75373
G1 X114.185 Y179.833 E.01481
G1 X148.774 Y214.421 E1.72568
G1 X148.539 Y214.55 E.00944
G1 X148.096 Y214.726 E.0168
G1 X147.635 Y214.844 E.0168
G1 X147.162 Y214.904 E.01681
G1 X145.911 Y214.904 E.04415
G1 X150.72 Y196.957 E.65548
M73 P8 R25
G1 X150.72 Y196.775 E.00642
G1 X133.779 Y179.834 E.84524
G1 X133.794 Y179.834 E.00055
G1 X124.397 Y214.904 E1.28088
G1 X124.766 Y214.904 E.01301
